deployments/warp_routes/LYX/logo.svg

<svg width="22" height="24" viewBox="0 0 22 24" fill="none" xmlns="http://www.w3.org/2000/svg">
<path d="M19.8315 4.54216L12.8958 0.533547C11.6666 -0.177849 10.1516 -0.177849 8.9224 0.533547L1.98669 4.54216C0.757534 5.25355 0 6.56712 0 7.98991V16.0101C0 17.4329 0.757534 18.7464 1.98669 19.4578L8.9224 23.4665C10.1516 24.1778 11.6666 24.1778 12.8958 23.4665L19.8315 19.4578C21.0606 18.7464 21.8182 17.4329 21.8182 16.0101V7.98991C21.8182 6.56712 21.0606 5.25355 19.8315 4.54216ZM16.4123 12.7955L14.3489 16.3732C14.066 16.8661 13.5413 17.1702 12.9724 17.1702H8.84577C8.27688 17.1702 7.7522 16.8661 7.46923 16.3732L5.40591 12.7955C5.12294 12.3026 5.12294 11.6974 5.40591 11.2045L7.46923 7.62684C7.7522 7.13388 8.27688 6.82984 8.84577 6.82984H12.9724C13.5413 6.82984 14.066 7.13388 14.3489 7.62684L16.4123 11.2045C16.6952 11.6945 16.6952 12.3026 16.4123 12.7955Z" fill="#FE005B"/>
</svg>

<svg xmlns="http://www.w3.org/2000/svg" width="22" height="24" fill="none" viewBox="0 0 22 24"><path fill="#FE005B" d="M19.832 4.542 12.895.534a3.97 3.97 0 0 0-3.974 0L1.987 4.542A3.98 3.98 0 0 0 0 7.99v8.02c0 1.423.758 2.736 1.987 3.448l6.935 4.009a3.97 3.97 0 0 0 3.974 0l6.935-4.01a3.98 3.98 0 0 0 1.987-3.447V7.99a3.98 3.98 0 0 0-1.987-3.448m-3.42 8.254-2.063 3.577a1.59 1.59 0 0 1-1.377.797H8.846a1.59 1.59 0 0 1-1.377-.797l-2.063-3.578a1.6 1.6 0 0 1 0-1.59l2.063-3.578a1.59 1.59 0 0 1 1.377-.797h4.126c.57 0 1.094.304 1.377.797l2.063 3.577c.283.49.283 1.099 0 1.592"/></svg>
